X: 20121
M: C
L: 1/8
K: G
V: 1 staves=3
|: G>A |\
V: 2
z2 |\
|: z2 |\
V: 3 clef=bass middle=d
z2 |\
g2g2 g4 | g2g>g g2z2 | [a4d4] [a4d4] | d2d2 d2z2 |\
g2g2 g4 | g2g2 g2g2 | B2c2 d2D2 | g2g>g g2 :|
|: z2 |\
g2z2 g2z2 | d2z2 d2z2 | g2g2 g4 | d2d2 d2z2 |\
g2g2 g2z2 | g2g2 g2z2 | B2c2 d2D2 | G2G>G G2 :|


